img/tw-round_icon.svg

<svg width="50" height="50" viewBox="0 0 50 50" fill="none" xmlns="http://www.w3.org/2000/svg">
<path fill-rule="evenodd" clip-rule="evenodd" d="M25 50C38.8071 50 50 38.8071 50 25C50 11.1929 38.8071 0 25 0C11.1929 0 0 11.1929 0 25C0 38.8071 11.1929 50 25 50Z" fill="#1DA1F2"/>
<path fill-rule="evenodd" clip-rule="evenodd" d="M33.979 19.3628C33.9532 19.3321 33.9106 19.3217 33.8743 19.3385C33.3361 19.5794 32.77 19.7527 32.1869 19.8551C32.8059 19.385 33.2672 18.734 33.5037 17.9876C33.5151 17.9519 33.5033 17.9128 33.4744 17.8895C33.4453 17.8663 33.4049 17.8633 33.373 17.8825C32.6758 18.2999 31.9206 18.5941 31.1276 18.7573C30.4248 18.0211 29.4435 17.6 28.4278 17.6C26.3623 17.6 24.6821 19.296 24.6821 21.3808C24.6821 21.633 24.7063 21.8827 24.7542 22.1252C21.8934 21.9469 19.2184 20.5605 17.3995 18.3086C17.3809 18.2855 17.3527 18.2727 17.3232 18.2757C17.2939 18.2779 17.2677 18.2947 17.2529 18.3202C16.9211 18.8948 16.7458 19.5523 16.7458 20.2211C16.7458 21.3803 17.2675 22.4641 18.1559 23.1792C17.6985 23.1238 17.2518 22.9784 16.849 22.7527C16.8219 22.7373 16.7882 22.7375 16.7611 22.7533C16.734 22.7689 16.7168 22.7979 16.7161 22.8296L16.7157 22.878C16.7157 24.5427 17.8025 26.0045 19.3487 26.4898C18.9415 26.5561 18.5189 26.5516 18.1036 26.4716C18.073 26.4658 18.0409 26.4764 18.0199 26.5003C17.999 26.5241 17.992 26.5574 18.0016 26.5875C18.4653 28.0484 19.7535 29.0728 21.2531 29.2005C20.0022 30.1255 18.5237 30.6129 16.9615 30.6129C16.6737 30.6129 16.3839 30.5956 16.1 30.5619C16.0594 30.5573 16.0192 30.5817 16.0052 30.6209C15.9912 30.6606 16.0061 30.7049 16.0412 30.7274C17.7317 31.8218 19.6864 32.4 21.6943 32.4C28.2619 32.4 32.1865 27.0148 32.1865 21.8087C32.1865 21.6637 32.1837 21.5195 32.178 21.3756C32.8865 20.8525 33.4947 20.2122 33.9851 19.471C34.007 19.4378 34.0046 19.3937 33.979 19.3628Z" fill="white"/>
</svg>

<svg width="50" height="50" fill="none" xmlns="http://www.w3.org/2000/svg"><path fill-rule="evenodd" clip-rule="evenodd" d="M25 50c13.807 0 25-11.193 25-25S38.807 0 25 0 0 11.193 0 25s11.193 25 25 25Z" fill="#1DA1F2"/><path fill-rule="evenodd" clip-rule="evenodd" d="M33.979 19.363a.088.088 0 0 0-.105-.024 7.158 7.158 0 0 1-1.687.516 3.777 3.777 0 0 0 1.317-1.867.09.09 0 0 0-.03-.098.089.089 0 0 0-.101-.008 7.177 7.177 0 0 1-2.245.875 3.745 3.745 0 0 0-2.7-1.157c-2.066 0-3.746 1.696-3.746 3.78 0 .253.024.503.072.745A10.298 10.298 0 0 1 17.4 18.31a.09.09 0 0 0-.147.012 3.806 3.806 0 0 0-.506 1.9 3.79 3.79 0 0 0 1.41 2.958 3.556 3.556 0 0 1-1.307-.426.088.088 0 0 0-.088 0 .09.09 0 0 0-.045.077v.048a3.79 3.79 0 0 0 2.633 3.612c-.407.066-.83.062-1.245-.018a.09.09 0 0 0-.102.115 3.752 3.752 0 0 0 3.251 2.614 7.155 7.155 0 0 1-4.291 1.412c-.288 0-.578-.017-.862-.051a.09.09 0 0 0-.095.059.09.09 0 0 0 .036.106 10.38 10.38 0 0 0 5.653 1.673c6.568 0 10.493-5.385 10.493-10.591 0-.145-.003-.29-.009-.433a7.51 7.51 0 0 0 1.807-1.905.091.091 0 0 0-.006-.108Z" fill="#fff"/></svg>
